assets/icons/traton/edit.svg

<svg viewBox="0 0 32 32" fill="none" xmlns="http://www.w3.org/2000/svg"><path d="m23 3-6 6L4.13 21.87 3 29l7.13-1.13L23 15l6-6-6-6ZM9.18 26l-3.77.6.59-3.77 12.41-12.42 3.17 3.18L9.18 26ZM23 12.17 19.83 9 23 5.83 26.17 9 23 12.17Z" fill="#001D21"/></svg>

<svg xmlns="http://www.w3.org/2000/svg" width="32" height="32" viewBox="0 0 32 32" fill="none">
<path d="M23 3L17 9L4.13 21.87L3 29L10.13 27.87L23 15L29 9L23 3ZM9.18 26L5.41 26.6L6 22.83L18.41 10.41L21.58 13.59L9.18 26ZM23 12.17L19.83 9L23 5.83L26.17 9L23 12.17Z" fill="#001D21" />
</svg>
